X:25
T:Soldier's Joy
M:C
L:1/4
Z:abc-transcription Josh Larios <hades@elsewhere.org>, 2017.02.14
G:Key: D
K:D
[P:A]|: F/G/ | "D"A F D F | A d d d/B/ | A F D F | "A"G E E F/G/ |
|"D"A F D F | "(G)"A d d e | "D"f d "A"e c | "D"d d d :|
[P:B]|: e | "D"f g a f | "G"e f g> e | "D"f g a f | "A"e/d/ c/B/ A e |
|"D"f g a f | "G"e f g> e | "D"f d "A"e c | "D"d d d :|

